X: 1
T: Mykines Valsurin
R: waltz
M: 3/4
L: 1/8
K: Emin
(3B^cd|:"Em"e2 ef ed|"G"B2 d3 B|"D"A2 AG AB|"Bm"D3 E/F/ GF|"C"E3 D (3B,A,g,,|"Bm"B,2 G3 A/B/|
"Am"c2 cd (3BAG|"D"A3 G Bd|"C"e2 fe (3dBA|"Bm"B2 g2 e/d/B|"D"A3 G AB|"Bm"D3 E/F/ GF|"C"E3 D (3B,A,G,|
"Bm"D2 B2 AF|"Am"G2 E2 ED|"Em"E4 (3B^cd|"Em"e2 ed BA|"G"B2 g3 b|"D"a2 ag ab|"Bm"d3 e/f/ gf|
"C"e2 ed (3BAB|"Bm"d2 D3 E/F/|"Am"G2 B2 A2|"Bm"F4 GF|"C"E2 ED B,A,|"Em"B,2 G3 B|"D"A2 AG Bd|
"C"e4 ge|"Bm"d2 ed (3:BAG|"G"(3ABd B2 AF|"C"G2 E2 ED|"Em"E4 (3B^cd|"Em"e2 fe (3dBA|"G"B2 g3 b|
"D"a2 ag ab|"Bm"d3 e/f/ gf|"C"e2 ed (3BAB|"Bm"d2 D3 E/F/|"Am"G2 B2 A2|"Bm"F4 GF|"C"E2 ED B,A,|
"Em"B,2 G3 B|"D"A2 AG Bd|"C"e4 ge|"Bm"d2 ed (3BAG|"G"(3ABd B2 AF|"C"G2 E2 ED|1 "Em"E4 (3B^cd:|2 "Em"E6|

